images/call-icon.svg

<svg fill="none" height="34" viewBox="0 0 34 34" width="34" xmlns="http://www.w3.org/2000/svg"><g fill="#fff"><path d="m18.6667 10.3333c1.326 0 2.5978.5268 3.5355 1.4645s1.4645 2.2095 1.4645 3.5355c0 .4421.1756.866.4881 1.1785.3126.3126.7365.4882 1.1785.4882.4421 0 .866-.1756 1.1785-.4882.3126-.3125.4882-.7364.4882-1.1785 0-2.2101-.878-4.3297-2.4408-5.89252-1.5628-1.56281-3.6824-2.44078-5.8925-2.44078-.4421 0-.866.1756-1.1785.48816-.3126.31256-.4882.73648-.4882 1.17851 0 .44202.1756.86595.4882 1.17851.3125.31252.7364.48812 1.1785.48812z"/><path d="m18.6668 3.66671c3.0942 0 6.0617 1.22916 8.2496 3.41708 2.1879 2.18793 3.4171 5.15541 3.4171 8.24961 0 .442.1756.8659.4881 1.1785.3126.3125.7365.4881 1.1786.4881.442 0 .8659-.1756 1.1785-.4881.3125-.3126.4881-.7365.4881-1.1785 0-3.9783-1.5803-7.79358-4.3934-10.60663-2.813-2.81304-6.6283-4.393396-10.6066-4.393396-.442 0-.8659.175595-1.1785.488155-.3125.312561-.4881.736481-.4881 1.178511s.1756.86595.4881 1.17851c.3126.31256.7365.48816 1.1785.48816zm14.5834 19.84999c-.0917-.2676-.25-.5074-.4599-.6969s-.4646-.3225-.7401-.3864l-10-2.2834c-.2715-.0615-.554-.0541-.8218.0216-.2679.0757-.5125.2173-.7116.4118-.2333.2166-.25.2333-1.3333 2.3-3.5947-1.6564-6.475-4.5486-8.1167-8.15 2.1167-1.0667 2.1334-1.0667 2.35-1.3167.1945-.1991.3361-.4437.4118-.7115.0757-.2679.0831-.5504.0216-.8218l-2.2834-9.88336c-.0639-.27551-.1969-.53021-.3864-.74015-.1895-.20993-.4293-.368179-.6969-.459849-.3892-.139018-.79115-.2395-1.20001-.3-.42124-.097675-.85111-.153501-1.28333-.166667-2.03332 0-3.98337.807736-5.42115 2.245516s-2.245514 3.38782-2.245514 5.42115c.00882 6.80456 2.715814 13.32776 7.527334 18.13936 4.81157 4.8115 11.33477 7.5185 18.13937 7.5273 1.0068 0 2.0037-.1983 2.9339-.5836.9301-.3853 1.7753-.95 2.4872-1.6619s1.2766-1.5571 1.6619-2.4873c.3853-.9301.5836-1.9271.5836-2.9339.0005-.4242-.0329-.8477-.1-1.2666-.07-.414-.176-.8211-.3166-1.2167zm-7.25 6.8167c-5.9219-.0044-11.5999-2.3588-15.7872-6.5462-4.18737-4.1873-6.54176-9.8653-6.54617-15.78716.00439-1.14792.46235-2.24757 1.27405-3.05928.81171-.81171 1.91136-1.26966 3.05928-1.27405h.55l1.78334 7.73329-.9.4667c-1.43334.75-2.56667 1.35-1.96667 2.65.97704 2.766 2.55797 5.2796 4.62787 7.3581 2.07 2.0786 4.5769 3.67 7.3388 4.6586 1.4.5666 1.95-.4834 2.7-1.9334l.4833-.9166 7.7167 1.7666v.55c-.0044 1.148-.4624 2.2476-1.2741 3.0593s-1.9113 1.2697-3.0592 1.2741z"/></g></svg>

<svg width="34" height="34" viewBox="0 0 34 34" fill="none" xmlns="http://www.w3.org/2000/svg">
<path d="M18.6667 10.3333C19.9927 10.3333 21.2645 10.8601 22.2022 11.7978C23.1399 12.7355 23.6667 14.0073 23.6667 15.3333C23.6667 15.7754 23.8423 16.1993 24.1548 16.5118C24.4674 16.8244 24.8913 17 25.3333 17C25.7754 17 26.1993 16.8244 26.5118 16.5118C26.8244 16.1993 27 15.7754 27 15.3333C27 13.1232 26.122 11.0036 24.5592 9.44078C22.9964 7.87797 20.8768 7 18.6667 7C18.2246 7 17.8007 7.1756 17.4882 7.48816C17.1756 7.80072 17 8.22464 17 8.66667C17 9.10869 17.1756 9.53262 17.4882 9.84518C17.8007 10.1577 18.2246 10.3333 18.6667 10.3333Z" fill="white"/>
<path d="M18.6668 3.66671C21.761 3.66671 24.7285 4.89587 26.9164 7.08379C29.1043 9.27172 30.3335 12.2392 30.3335 15.3334C30.3335 15.7754 30.5091 16.1993 30.8216 16.5119C31.1342 16.8244 31.5581 17 32.0002 17C32.4422 17 32.8661 16.8244 33.1787 16.5119C33.4912 16.1993 33.6668 15.7754 33.6668 15.3334C33.6668 11.3551 32.0865 7.53982 29.2734 4.72677C26.4604 1.91373 22.6451 0.333374 18.6668 0.333374C18.2248 0.333374 17.8009 0.508969 17.4883 0.821529C17.1758 1.13409 17.0002 1.55801 17.0002 2.00004C17.0002 2.44207 17.1758 2.86599 17.4883 3.17855C17.8009 3.49111 18.2248 3.66671 18.6668 3.66671ZM33.2502 23.5167C33.1585 23.2491 33.0002 23.0093 32.7903 22.8198C32.5804 22.6303 32.3257 22.4973 32.0502 22.4334L22.0502 20.15C21.7787 20.0885 21.4962 20.0959 21.2284 20.1716C20.9605 20.2473 20.7159 20.3889 20.5168 20.5834C20.2835 20.8 20.2668 20.8167 19.1835 22.8834C15.5888 21.227 12.7085 18.3348 11.0668 14.7334C13.1835 13.6667 13.2002 13.6667 13.4168 13.4167C13.6113 13.2176 13.7529 12.973 13.8286 12.7052C13.9043 12.4373 13.9117 12.1548 13.8502 11.8834L11.5668 2.00004C11.5029 1.72453 11.3699 1.46983 11.1804 1.25989C10.9909 1.04996 10.7511 0.891711 10.4835 0.800041C10.0943 0.661023 9.69235 0.560541 9.28349 0.500041C8.86225 0.402366 8.43238 0.34654 8.00016 0.333374C5.96684 0.333374 4.01679 1.14111 2.57901 2.57889C1.14123 4.01667 0.333496 5.96671 0.333496 8.00004C0.342316 14.8046 3.04931 21.3278 7.86083 26.1394C12.6724 30.9509 19.1956 33.6579 26.0002 33.6667C27.007 33.6667 28.0039 33.4684 28.9341 33.0831C29.8642 32.6978 30.7094 32.1331 31.4213 31.4212C32.1332 30.7093 32.6979 29.8641 33.0832 28.9339C33.4685 28.0038 33.6668 27.0068 33.6668 26C33.6673 25.5758 33.6339 25.1523 33.5668 24.7334C33.4968 24.3194 33.3908 23.9123 33.2502 23.5167ZM26.0002 30.3334C20.0783 30.329 14.4003 27.9746 10.213 23.7872C6.02563 19.5999 3.67124 13.9219 3.66683 8.00004C3.67122 6.85212 4.12918 5.75247 4.94088 4.94076C5.75259 4.12905 6.85224 3.6711 8.00016 3.66671H8.55016L10.3335 11.4L9.4335 11.8667C8.00016 12.6167 6.86683 13.2167 7.46683 14.5167C8.44387 17.2827 10.0248 19.7963 12.0947 21.8748C14.1647 23.9534 16.6716 25.5448 19.4335 26.5334C20.8335 27.1 21.3835 26.05 22.1335 24.6L22.6168 23.6834L30.3335 25.45V26C30.3291 27.148 29.8711 28.2476 29.0594 29.0593C28.2477 29.871 27.1481 30.329 26.0002 30.3334Z" fill="white"/>
</svg>
